X: 21846
T: Kirkhill
R: jig
M: 6/8
K: Dmajor
|:A|F2D D2A|B<dA B>cd|F2D D2F|E<FD E2A|
F2D D2A|B<dA B>cd|d>AF d2E|F<AD D2:|
|:A|B>cd d2A|B<dA B>cd|d>AF D2F|E<FD E2A|
B>cd d2A|B<dA B>cd|d>AF d2E|F<AD D2:|
|:A|D3 F2G|F>GE D>FA|d>AF D2F|E<FD E2A|
D3 F2G|F>GE D>FA|d>AF d2E|F<AD D2:|
|:FA|B>Ad B2A|d>AF D>FA|d>AF D2F|E<FD E>FA|
B>Ad B2A|d>AF D>FA|d>AF d2E|F<AD D2:|

